raw/symbols/btt.svg

<svg width="42" height="42" viewBox="0 0 42 42" fill="none" xmlns="http://www.w3.org/2000/svg">
<circle cx="21" cy="21" r="20" fill="#222222"/>
<path d="M35.6921 17.9841C35.4934 17.0189 35.1997 16.0758 34.8152 15.1686C34.4363 14.2749 33.9727 13.4196 33.4307 12.6144C32.8933 11.8188 32.2802 11.0771 31.6002 10.3994C30.9221 9.71928 30.1799 9.10626 29.384 8.56891C28.5775 8.02966 27.7229 7.56618 26.831 7.18441C24.9866 6.40215 23.0037 5.99902 21.0003 5.99902C18.9969 5.99902 17.0139 6.40215 15.1695 7.18441C13.3861 7.93667 11.7662 9.0291 10.4004 10.4007C9.72039 11.0779 9.10737 11.8193 8.56989 12.6144C8.03057 13.4212 7.56709 14.2763 7.18538 15.1686C6.40313 17.0129 6 18.9959 6 20.9993C6 23.0027 6.40313 24.9857 7.18538 26.8301C7.55475 27.7221 8.03217 28.5676 8.56989 29.383C9.10734 30.1789 9.72035 30.9211 10.4004 31.5992C11.0784 32.2793 11.8206 32.8924 12.6166 33.4297C13.4157 33.9674 14.2775 34.4298 15.1695 34.8142C17.0139 35.5965 18.9969 35.9996 21.0003 35.9996C23.0037 35.9996 24.9866 35.5965 26.831 34.8142C27.7231 34.4448 28.5686 33.9674 29.384 33.4297C30.1799 32.8924 30.9221 32.2793 31.6002 31.5992C32.2803 30.9212 32.8933 30.179 33.4307 29.383C33.9684 28.5839 34.4307 27.7221 34.8152 26.8301C35.9987 24.0388 36.3046 20.9534 35.6921 17.9841ZM21.0141 34.122C13.7687 34.122 7.90779 28.2447 7.90779 21.0144C7.90779 13.7841 13.785 7.90681 21.0141 7.90681C28.2444 7.90681 34.1217 13.7841 34.1217 21.0144C34.1217 28.2447 28.2457 34.122 21.0141 34.122Z" fill="white"/>
<path d="M21.2464 32.9844H21.6007C21.6623 32.9844 21.7226 32.9844 21.7841 32.968H21.8005C21.862 32.968 21.9073 32.968 21.9688 32.953H22.0153C22.0618 32.953 22.1083 32.953 22.1535 32.9379H22.2C22.2465 32.9379 22.293 32.9228 22.3545 32.9228H22.3847C22.4462 32.9228 22.5078 32.9065 22.5694 32.9065C22.6309 32.9065 22.6774 32.8914 22.739 32.8763H22.7691C22.8156 32.8763 22.8621 32.8613 22.9073 32.8613H22.9387C23.0003 32.8449 23.0468 32.8449 23.1083 32.8298C23.2302 32.8148 23.3533 32.7834 23.4614 32.7532H23.4928C23.538 32.7381 23.5996 32.7381 23.6461 32.7218H23.6611C23.7843 32.6916 23.8923 32.6602 24.0154 32.6301C22.8631 32.6666 21.7108 32.5581 20.5856 32.3072C18.892 31.9378 17.2776 31.277 15.9082 30.1375C14.8286 29.239 13.9621 28.1118 13.3716 26.8375C12.781 25.5631 12.481 24.1734 12.4934 22.7689C12.5045 20.6736 13.25 18.6485 14.6003 17.0462C16.3542 14.9695 18.8468 13.8764 21.3997 13.8149H21.754V11.7695H21.3545C20.5778 11.7838 19.8046 11.8764 19.0465 12.0459C18.2837 12.2184 17.5413 12.4711 16.8316 12.7997C16.1079 13.139 15.4307 13.5536 14.8001 14.031C14.1483 14.5264 13.5549 15.0941 13.0311 15.7233C12.5379 16.3056 12.1099 16.94 11.7546 17.6154C11.4032 18.2664 11.1194 18.9518 10.9079 19.6607C10.7003 20.3587 10.5615 21.0753 10.4933 21.8003L10.4468 22.4762V22.8757C10.4619 23.6609 10.5548 24.4298 10.7232 25.1837C10.8928 25.9538 11.1541 26.6913 11.477 27.3999C11.8627 28.2454 12.5549 29.4917 13.5852 30.4302C15.6887 32.0885 18.2902 32.9884 20.9688 32.9844H21.2464Z" fill="white"/>
<path d="M24.5998 31.0121C23.841 30.985 23.0852 30.9027 22.3384 30.7658C19.1698 30.1967 16.446 28.2581 15.4472 25.3359C14.2311 21.7816 16.093 17.9359 19.6309 16.7675C20.3051 16.5416 21.0117 16.427 21.7227 16.4283C22.6311 16.4283 23.5382 16.613 24.3699 16.9509L25.2305 15.1204C24.9717 15.0167 24.7103 14.9195 24.4465 14.8289C23.5651 14.5523 22.6466 14.4121 21.7227 14.4131C20.7972 14.4148 19.8779 14.5654 19.0002 14.8591C17.88 15.2286 16.8483 15.8257 15.9699 16.613C15.5462 16.9903 15.16 17.4077 14.8165 17.8593C14.477 18.3057 14.1832 18.7851 13.9396 19.2903C13.4435 20.3059 13.1508 21.4087 13.0777 22.5367C13.0011 23.7051 13.1544 24.8735 13.5388 25.9816C13.9305 27.1215 14.5601 28.1652 15.3857 29.0434C16.1395 29.8587 17.0164 30.4744 18.0768 31.0435C19.1849 31.6277 20.5543 31.9355 21.9841 32.1365C22.9075 32.2584 24.1387 32.2898 24.8611 32.2898C25.4918 32.0586 25.7531 31.9506 26.0923 31.8124C26.3851 31.6742 26.6766 31.536 26.9693 31.3664C27.262 31.1968 27.3085 31.1654 27.7997 30.8437C27.8435 30.8165 27.8847 30.7854 27.9229 30.7508C26.2305 31.0435 25.7996 31.0272 24.5998 31.0121Z" fill="white"/>
<path d="M28.3845 28.7226C27.9071 28.7528 27.2299 28.798 26.461 28.798C25.0916 28.798 23.4143 28.6761 21.9846 28.1987C19.7684 27.4612 17.6765 25.5692 17.6765 23.2298C17.6761 22.6762 17.7847 22.1278 17.9964 21.6162C18.208 21.1046 18.5185 20.6397 18.91 20.2482C19.3015 19.8567 19.7664 19.5462 20.278 19.3346C20.7896 19.1229 21.338 19.0143 21.8916 19.0148C23.4759 19.0148 24.8453 19.8917 25.569 21.1681L27.3995 20.2611C27.1125 19.7207 26.7438 19.2278 26.3065 18.7999C25.727 18.2194 25.0387 17.7589 24.2811 17.4447C23.5234 17.1305 22.7112 16.9688 21.891 16.9688C21.0708 16.9688 20.2586 17.1305 19.5009 17.4447C18.7433 17.7589 18.055 18.2194 17.4755 18.7999C16.8952 19.3794 16.4349 20.0676 16.1208 20.8251C15.8067 21.5826 15.645 22.3947 15.645 23.2148C15.6491 24.0742 15.8331 24.9233 16.1853 25.7074C16.5069 26.4147 16.9541 27.0768 17.5233 27.6924C18.5233 28.7679 19.8915 29.6297 21.3539 30.1222C22.7535 30.5833 24.8152 30.7529 26.8153 30.6147C27.3681 30.5682 27.7839 30.5217 28.4913 30.3684C29.1739 29.8298 29.7934 29.2157 30.3381 28.5379C29.8607 28.5844 28.9838 28.6761 28.3845 28.7226Z" fill="white"/>
</svg>

<svg xmlns="http://www.w3.org/2000/svg" width="42" height="42" fill="none"><circle cx="21" cy="21" r="20" fill="#222"/><path fill="#fff" d="M35.692 17.984a14.929 14.929 0 0 0-.877-2.815 14.91 14.91 0 0 0-3.215-4.77 14.914 14.914 0 0 0-2.216-1.83 15.728 15.728 0 0 0-2.553-1.385 14.933 14.933 0 0 0-11.662 0 14.906 14.906 0 0 0-4.769 3.217 14.904 14.904 0 0 0-1.83 2.213 15.725 15.725 0 0 0-1.385 2.555 14.933 14.933 0 0 0 0 11.661c.37.892.847 1.738 1.385 2.553.537.796 1.15 1.538 1.83 2.216.678.68 1.42 1.293 2.217 1.83.799.538 1.66 1 2.552 1.385a14.933 14.933 0 0 0 11.662 0c.892-.37 1.738-.847 2.553-1.384A14.912 14.912 0 0 0 31.6 31.6c.68-.679 1.293-1.421 1.83-2.217.538-.8 1-1.66 1.385-2.553a14.933 14.933 0 0 0 .877-8.846ZM21.014 34.122c-7.245 0-13.106-5.877-13.106-13.108 0-7.23 5.877-13.107 13.106-13.107 7.23 0 13.108 5.877 13.108 13.107 0 7.23-5.876 13.108-13.108 13.108Z"/><path fill="#fff" d="M21.246 32.984h.355c.061 0 .122 0 .183-.016h.017c.061 0 .106 0 .168-.015h.046c.047 0 .093 0 .139-.015h.046c.047 0 .093-.015.155-.015h.03c.061 0 .123-.017.184-.017.062 0 .108-.015.17-.03h.03c.047 0 .093-.015.138-.015h.032c.061-.016.108-.016.17-.031a2.45 2.45 0 0 0 .352-.077h.032c.045-.015.107-.015.153-.031h.015c.123-.03.231-.062.354-.092a13.758 13.758 0 0 1-3.43-.323c-1.693-.37-3.307-1.03-4.677-2.17a9.478 9.478 0 0 1-3.415-7.368 8.954 8.954 0 0 1 2.107-5.723c1.754-2.076 4.247-3.17 6.8-3.231h.354V11.77h-.4c-.776.014-1.55.106-2.307.276-.763.172-1.506.425-2.215.754-.724.339-1.401.754-2.032 1.231a10.824 10.824 0 0 0-1.769 1.692 10.468 10.468 0 0 0-1.276 1.892 10.816 10.816 0 0 0-.847 2.046 11.177 11.177 0 0 0-.415 2.14l-.046.675v.4c.015.785.108 1.554.276 2.308.17.77.431 1.507.754 2.216.386.845 1.078 2.092 2.108 3.03a11.897 11.897 0 0 0 7.384 2.554h.277Z"/><path fill="#fff" d="M24.6 31.012a15.637 15.637 0 0 1-2.262-.246c-3.168-.57-5.892-2.508-6.89-5.43-1.217-3.554.645-7.4 4.183-8.569a6.547 6.547 0 0 1 2.092-.339c.908 0 1.815.185 2.647.523l.86-1.83c-.258-.104-.52-.202-.784-.292a9.064 9.064 0 0 0-2.723-.416A8.63 8.63 0 0 0 19 14.86a8.556 8.556 0 0 0-3.03 1.754c-.424.377-.81.795-1.154 1.246-.339.447-.633.926-.876 1.431a8.674 8.674 0 0 0-.862 3.247 8.748 8.748 0 0 0 .46 3.445 8.506 8.506 0 0 0 1.848 3.061c.754.816 1.63 1.431 2.69 2 1.109.585 2.478.893 3.908 1.093.923.122 2.155.154 2.877.154.63-.231.892-.34 1.231-.478.293-.138.585-.276.877-.446.293-.17.34-.2.83-.522a.857.857 0 0 0 .124-.093c-1.692.293-2.123.276-3.323.261Z"/><path fill="#fff" d="M28.384 28.723c-.477.03-1.154.075-1.923.075-1.37 0-3.047-.122-4.476-.6-2.217-.737-4.308-2.629-4.308-4.968a4.212 4.212 0 0 1 4.215-4.215c1.584 0 2.953.877 3.677 2.153l1.83-.907a5.947 5.947 0 0 0-1.093-1.461 6.24 6.24 0 0 0-8.83 0 6.24 6.24 0 0 0-1.831 4.415c.004.86.188 1.708.54 2.492a7.49 7.49 0 0 0 1.338 1.985c1 1.076 2.369 1.938 3.83 2.43 1.4.461 3.462.63 5.462.493a11.45 11.45 0 0 0 1.676-.247 11.54 11.54 0 0 0 1.847-1.83c-.477.046-1.354.138-1.954.185Z"/></svg>
